fonts/piswpi/uni004e.svg

<svg width="500" height="900" xmlns="http://www.w3.org/2000/svg">
    <path d="M250 300a150 150 0 0 0-150 150 150 150 0 0 0 150 150 150 150 0 0 0 150-150 150 150 0 0 0-150-150zm150 150a50 50 0 0 0 50 50 50 50 0 0 0 50-50 50 50 0 0 0-50-50 50 50 0 0 0-50 50zM250 600a50 50 0 0 0-50 50 50 50 0 0 0 50 50 50 50 0 0 0 50-50 50 50 0 0 0-50-50zm135.824-58.264a50 50 0 0 0-29.758 14.33 50 50 0 0 0 0 70.711 50 50 0 0 0 38.922 14.518 50 50 0 0 0 31.79-14.518 50 50 0 0 0 0-70.71 50 50 0 0 0-40.954-14.33z"/>
</svg>

<svg width="500" height="900" xmlns="http://www.w3.org/2000/svg">
    <path
        d="M 450 400 A 50 50 0 0 0 400 450 A 50 50 0 0 0 450 500 A 50 50 0 0 0 500 450 A 50 50 0 0 0 450 400 z M 391.42188 541.42188 A 50 50 0 0 0 341.42188 591.42188 A 50 50 0 0 0 391.42188 641.42188 A 50 50 0 0 0 441.42188 591.42188 A 50 50 0 0 0 391.42188 541.42188 z M 250 600 A 50 50 0 0 0 200 650 A 50 50 0 0 0 250 700 A 50 50 0 0 0 300 650 A 50 50 0 0 0 250 600 z " />
    <path d="M 400,450 A 150,150 0 0 1 250,600 150,150 0 0 1 100,450 150,150 0 0 1 250,300 150,150 0 0 1 400,450 Z" />
</svg>
